!!!!SEGMENT: pl-kk--kk-i-3--014-001_anonim--angelicum-sanctus.krn
!!!cenid: 15xx:615
!!!COM: Anonim
!!!COM-rismID: pe30004985
!!!CDT:
!!!CNT:
!!!OPR: Angelicum
!!!OTL: Sanctus
!!!OMV: 001
!!!PDT:
!!!AGN:
!!!YEC: Copyright 2022 Narodowy Instytut Fryderyka Chopina (https://polishscores.org)
!!!YEM: License CC-BY-4.0 (https://creativecommons.org/licenses/by/4.0)
!!!SMS-siglum: PL-Kk
!!!SMS-shelfmark: Kk.I.3
!!!SMS-shelfwork: 014-001 M
!!!SMS-variant:
!!!SMS-altvar:
!!!NIFC-rismSourceID: 1001145493
!!!NIFC-rismChildID: 1001145493
!!!NIFC-islandoraID: pl-kk:1170
!!!URL-pdf-islandora: https://repozytorium.nifc.pl/islandora/object/pl-kk%3A1170/datastream/PDF/view
!!!URL-scan: https://polish.musicsources.pl/pl/lokalizacje/galeria/rekopisy/5919 @EN{Scan on Polish Music Sources Website} @PL{Skany w portalu Dziedzictwo Muzyki Polskiej w otwartym dostępie}
!!!IIIF:
!!!ONB-nifc: UWAGA: Discantus (s. 67r-68r, skan 0069-0070), Tenor (s. 46v-47r, skan 0219), Bassus (s. 63r-v, skan 0366-0367). Następna część: Benedictus
!!!AIN: 1 bass 1 empty 1 tenor
!!!key:
**kern	**text	**kern	**text	**kern	**text
*part3	*	*part2	*	*part1	*
*staff3	*	*staff2	*	*staff1	*
*Ibass	*	*Itenor	*	*Iempty	*
*I"Bassus	*	*I"Tenor	*	*I"Discantus	*
*I'B	*	*I'T	*	*I'S	*
*clefF4	*	*clefC4	*	*clefC3	*
*k[]	*	*k[]	*	*k[]	*
*a:	*	*a:	*	*a:	*
*M2/1	*	*M2/1	*	*M2/1	*
*lig	*	*	*	*	*
=1	=1	=1	=1	=1	=1
!LO:TX:a:t=Angelicu(m)	!	!	!	!	!
*	*	*lig	*	*	*
!	!	!LO:TX:a:t=Angelicum	!	!	!
*	*	*	*	*lig	*
!	!	!	!	!LO:TX:a:t=Angelicum	!
1E	San-	1E	San-	1B	San-
1D	.	1F	.	1d	.
*Xlig	*	*Xlig	*	*Xlig	*
=2	=2	=2	=2	=2	=2
*	*	*lig	*	*	*
1C	.	1E	.	2G/	.
.	.	.	.	1A	.
*lig	*	*	*	*	*
1BB	.	1D	.	.	.
.	.	.	.	2G/	.
*	*	*Xlig	*	*	*
=3	=3	=3	=3	=3	=3
*	*	*lig	*	*	*
1AA	.	1E	.	1A	.
*Xlig	*	*	*	*	*
1GG	.	1G	.	[1B	.
*	*	*Xlig	*	*	*
=4	=4	=4	=4	=4	=4
*	*	*lig	*	*	*
1G	.	1E	.	1B]	.
2G\	.	1C	.	1c	.
[2E\	.	.	.	.	.
*	*	*Xlig	*	*	*
=5	=5	=5	=5	=5	=5
*	*	*lig	*	*	*
2E\]	.	1D	.	2A/	.
1D	.	.	.	2B/	.
.	.	1E	.	2G/	.
2C/	.	.	.	[2c\	.
*	*	*Xlig	*	*	*
=6	=6	=6	=6	=6	=6
*custos:AAA	*	*	*	*	*
*	*	*lig	*	*	*
1D	.	1F	.	2c\]	.
*	*	*	*	*custos:C	*
.	.	.	.	2B/	.
2AA/	.	1E	.	1c	.
2C/	.	.	.	.	.
*	*	*Xlig	*	*	*
=7	=7	=7	=7	=7	=7
1BB	.	1D	.	1d	.
1AA;	-ctus	1E;	-ctus.	1c;	-ctus
=8	=8	=8	=8	=8	=8
*	*	*lig	*	*	*
1E	San-	1B	San-	0e	San-
*	*	*custos:BB	*	*	*
2AA/	.	1c	.	.	.
2C/	.	.	.	.	.
*	*	*Xlig	*	*	*
=9	=9	=9	=9	=9	=9
*	*	*lig	*	*	*
2D/	.	1B	.	2d/	.
2E/	.	.	.	1g	.
2C/	.	1A	.	.	.
2D/	.	.	.	2f/	.
*	*	*Xlig	*	*	*
=10	=10	=10	=10	=10	=10
*	*	*lig	*	*	*
0GG	.	1B	.	1g	.
.	.	1G	.	2g\	.
.	.	.	.	2d/	.
*	*	*Xlig	*	*	*
=11	=11	=11	=11	=11	=11
*custos:AA	*	*	*	*	*
*	*	*lig	*	*	*
1G	.	1E	.	1e	.
2A\	.	1F	.	2c/	.
2F/	.	.	.	2d/	.
*	*	*	*	*custos:BB	*
*	*	*Xlig	*	*	*
=12	=12	=12	=12	=12	=12
*	*	*lig	*	*	*
2G\	.	1E	.	2B/	.
1C	.	.	.	2c/	.
.	.	1D	.	1d	.
2BB/	.	.	.	.	.
*	*	*Xlig	*	*	*
=13	=13	=13	=13	=13	=13
*lig	*	*	*	*	*
1C	.	1E	.	2G/	.
.	.	.	.	1c	.
1GG	.	1D	.	.	.
.	.	.	.	2B/	.
*Xlig	*	*	*	*	*
=14	=14	=14	=14	=14	=14
1G;	-ctus	0C;	-ctus	0c;	-ctus
1r	.	.	.	.	.
=15	=15	=15	=15	=15	=15
*lig	*	*lig	*	*lig	*
1E	San-	1E	San-	1B	San-
1D	.	1F	.	1d	.
*Xlig	*	*Xlig	*	*Xlig	*
=16	=16	=16	=16	=16	=16
*lig	*	*lig	*	*	*
1C	.	1E	.	2G/	.
.	.	.	.	1A	.
1BB	.	1D	.	.	.
.	.	.	.	2G/	.
*Xlig	*	*Xlig	*	*	*
=17	=17	=17	=17	=17	=17
*lig	*	*lig	*	*	*
1AA	.	1E	.	1A	.
*	*	*	*	*custos:C	*
1GG	.	1G	.	[1B	.
*Xlig	*	*Xlig	*	*	*
=18	=18	=18	=18	=18	=18
*	*	*lig	*	*	*
1G	.	1E	.	1B]	.
2G\	.	1C	.	1c	.
[2E\	.	.	.	.	.
*	*	*Xlig	*	*	*
=19	=19	=19	=19	=19	=19
*	*	*custos:EE	*	*	*
2E\]	.	1D	.	2A/	.
*custos:CC	*	*	*	*	*
1D	.	.	.	2B/	.
.	.	1E	.	2G/	.
2C/	.	.	.	[2c\	.
=20	=20	=20	=20	=20	=20
*	*	*lig	*	*	*
1D	.	1F	.	2c\]	.
.	.	.	.	2B/	.
2AA/	.	1E	.	1c	.
2C/	.	.	.	.	.
*	*	*Xlig	*	*	*
=21	=21	=21	=21	=21	=21
1BB	.	1D	.	1d	.
1AA	-ctus	1E	-ctus	1c	ctus
=22	=22	=22	=22	=22	=22
2GG/	do-	1G	do-	2d/	do-
1G	.	.	.	1e	-mi-
.	.	1A	-mi-	.	.
2F\	-mi-	.	.	2f\	.
=23	=23	=23	=23	=23	=23
1G	-nus	1B	-nus	1d	-nus
*	*	*lig	*	*	*
1C	de-	1c	de-	1e	de-
=24	=24	=24	=24	=24	=24
*	*	*	*	*custos:G	*
1G	.	1B	.	2d/	.
.	.	.	.	2g\	.
*	*	*Xlig	*	*	*
*	*	*lig	*	*	*
2A\	.	1A	.	2e/	.
2F/	.	.	.	2f\	.
=25	=25	=25	=25	=25	=25
1G	.	1B	.	2d/	.
.	.	.	.	1g	.
*	*	*Xlig	*	*	*
*custos:EE	*	*	*	*	*
*	*	*lig	*	*	*
1D	.	1A	.	.	.
.	.	.	.	2f\	us
=26	=26	=26	=26	=26	=26
1E	.	1G,	-us	1g	.
*	*	*Xlig	*	*	*
1AA	-sab-	1A	Sab-	1e	sab-
=27	=27	=27	=27	=27	=27
*	*	*lig	*	*	*
2C/	-ba-	1A	-ba-	2e/	-ba-
2D/	.	.	.	1d	.
1E	.	1G	.	.	.
.	.	.	.	2c/	.
*	*	*Xlig	*	*	*
=28	=28	=28	=28	=28	=28
1D	.	1A	.	1d;	.
*	*	*custos:E	*	*custos:BB	*
1GG;	-oth	1B;	-oth	1d;	-oth
=29	=29	=29	=29	=29	=29
1E	Ple-	1e	Ple-	1B	Ple-
1BB	-ni	1d	-ni	1d	-ni
=30	=30	=30	=30	=30	=30
1E	(su)nt	1B	su(n)t	1e	sunt
*	*	*lig	*	*lig	*
2AA/	c(a)e-	1c	c(a)e-	1e	c(a)e-
[2A\	.	.	.	.	.
=31	=31	=31	=31	=31	=31
2A\]	.	1B	.	1g	.
2G\	.	.	.	.	.
*custos:AA	*	*	*	*	*
*	*	*Xlig	*	*Xlig	*
*	*	*lig	*	*	*
1A	.	1A	.	2e/	.
.	.	.	.	[2f\	.
=32	=32	=32	=32	=32	=32
2E/	.	1B	.	2f\]	.
2G/	.	.	.	1e	.
*	*	*Xlig	*	*	*
*	*	*lig	*	*	*
1F	-li	1A	-li	.	.
.	.	.	.	2d/	-li
=33	=33	=33	=33	=33	=33
1E	.	1G,	.	1e	.
*	*	*Xlig	*	*	*
1AA	et	1E	et	1c	et
=34	=34	=34	=34	=34	=34
*	*	*lig	*	*	*
2AA/	ter-	1F	ter-	2c/	ter-
1A	.	.	.	2A/	.
.	.	1E	.	2B/	.
2G/	.	.	.	2c/	.
*	*	*Xlig	*	*	*
=35	=35	=35	=35	=35	=35
*	*	*	*	*custos:BB	*
2A\	.	1D	.	1d	.
1B	.	.	.	.	.
.	.	1E	.	2B/	.
2G/	.	.	.	2c/	.
=36	=36	=36	=36	=36	=36
*custos:BB	*	*	*	*	*
*	*	*lig	*	*	*
2A\	-ra	1D	-ra	1d	-ra
*clefF3	*	*	*	*	*
2B\	.	.	.	.	.
1c	.	1C	.	1e	.
*	*	*Xlig	*	*	*
=37	=37	=37	=37	=37	=37
1B	glo-	1G	glo-	1e	glo-
*	*	*custos:CC	*	*	*
1G	-ri-	1E	-ri-	1g	-ria
=38	=38	=38	=38	=38	=38
1E	-a	1C	-a	2g\	.
.	.	.	.	2e/	tu-
*	*	*lig	*	*	*
2F/	tu-	1D	tu-	2d/	.
[2A\	.	.	.	2f/	.
=39	=39	=39	=39	=39	=39
2A\]	.	1E	.	1e	.
2G/	.	.	.	.	.
*	*	*Xlig	*	*	*
*	*	*lig	*	*	*
2F/	.	1F	.	[1c	.
2D/	.	.	.	.	.
=40	=40	=40	=40	=40	=40
2E/	.	1E	.	1c]	.
2G/	.	.	.	.	.
*	*	*Xlig	*	*	*
1F	.	1D	.	1d	.
=41	=41	=41	=41	=41	=41
*custos:EE	*	*	*	*	*
0E;	-a	0E;	-a	1B;	-a
*	*	*	*	*custos:BB	*
.	.	.	.	1B;	.
=42	=42	=42	=42	=42	=42
*lig	*	*lig	*	*lig	*
1E	o-	1E	o-	1B	o-
1D	.	1F	.	1d	.
*Xlig	*	*Xlig	*	*Xlig	*
=43	=43	=43	=43	=43	=43
*	*	*lig	*	*	*
2AA/	.	1E	.	2c/	.
2C/	.	.	.	1A	.
1BB	.	1D	.	.	.
.	.	.	.	2G/	.
*	*	*Xlig	*	*	*
=44	=44	=44	=44	=44	=44
1AA	.	1E	.	1A	.
*	*	*lig	*	*	*
1BB	.	1B	.	1d	.
=45	=45	=45	=45	=45	=45
2AA/	.	1c	.	2e/	.
2A/	.	.	.	1f	.
*	*	*Xlig	*	*	*
2E/	.	1B	.	.	.
2G/	.	.	.	[2e\	.
=46	=46	=46	=46	=46	=46
*	*	*lig	*	*	*
1F	.	1A	.	2e\]	.
.	.	.	.	2d/	.
1E	san-	1G	.	1e	.
*	*	*Xlig	*	*	*
=47	=47	=47	=47	=47	=47
*	*	*custos:CC	*	*	*
1G	-na	1E	-san-	1e	-san-
2G/	in	1C	-na	2e/	-na
[2A\	.	.	.	2c/	.
=48	=48	=48	=48	=48	=48
*custos:FF	*	*	*	*custos:D	*
2A\]	.	1D	in	2f\	in
2F/	e-	.	.	2d/	ex-
2G/	.	1E	ex-	2e/	.
2E/	.	.	.	[2c\	.
=49	=49	=49	=49	=49	=49
*	*	*lig	*	*	*
1D	-xel-	1F	-cel-	2c\]	.
.	.	.	.	2B/	.
*	*	*	*	*lig	*
1C	.	1E	.	1c	-el-
*	*	*Xlig	*	*	*
=50	=50	=50	=50	=50	=50
1D	.	0E;	-ſis.	1A	-sis
*	*	*	*	*Xlig	*
1AA;	-sis	.	.	1A;	.
==	==	==	==	==	==
*-	*-	*-	*-	*-	*-
!!!system-decoration: s1,s2,s3
!!!ENC: Marta Opryszak
!!!END: 2022-01-04
